symbols/web/adb/materialsymbolsoutlined/adb_wght200_20px.svg

<svg xmlns="http://www.w3.org/2000/svg" height="20" width="20"><path d="M5.062 9.312v-.708q0-1.271.584-2.302.583-1.031 1.542-1.719L5.854 3.271l.646-.646 1.479 1.479q.438-.208.959-.323.52-.114 1.062-.114.521 0 1.052.114.531.115.969.323L13.5 2.625l.646.646-1.334 1.312q.959.688 1.542 1.719.584 1.031.584 2.302v.708Zm7.063-1.416q.292 0 .49-.198.197-.198.197-.51 0-.292-.197-.5-.198-.209-.49-.209-.313 0-.51.209-.198.208-.198.5 0 .312.198.51.197.198.51.198Zm-4.25 0q.313 0 .51-.198.198-.198.198-.51 0-.292-.198-.5-.197-.209-.51-.209-.292 0-.49.209-.197.208-.197.5 0 .312.197.51.198.198.49.198ZM10 17.792q-2.062 0-3.5-1.438-1.438-1.437-1.438-3.5v-2.833h9.876v2.833q0 2.063-1.438 3.5-1.438 1.438-3.5 1.438Z"/></svg>

<svg xmlns="http://www.w3.org/2000/svg" height="20" width="20"><path d="M5.062 9.312V8.604Q5.062 7.333 5.646 6.302Q6.229 5.271 7.188 4.583L5.854 3.271L6.5 2.625L7.979 4.104Q8.417 3.896 8.938 3.781Q9.458 3.667 10 3.667Q10.521 3.667 11.052 3.781Q11.583 3.896 12.021 4.104L13.5 2.625L14.146 3.271L12.812 4.583Q13.771 5.271 14.354 6.302Q14.938 7.333 14.938 8.604V9.312ZM12.125 7.896Q12.417 7.896 12.615 7.698Q12.812 7.5 12.812 7.188Q12.812 6.896 12.615 6.688Q12.417 6.479 12.125 6.479Q11.812 6.479 11.615 6.688Q11.417 6.896 11.417 7.188Q11.417 7.5 11.615 7.698Q11.812 7.896 12.125 7.896ZM7.875 7.896Q8.188 7.896 8.385 7.698Q8.583 7.5 8.583 7.188Q8.583 6.896 8.385 6.688Q8.188 6.479 7.875 6.479Q7.583 6.479 7.385 6.688Q7.188 6.896 7.188 7.188Q7.188 7.5 7.385 7.698Q7.583 7.896 7.875 7.896ZM10 17.792Q7.938 17.792 6.5 16.354Q5.062 14.917 5.062 12.854V10.021H14.938V12.854Q14.938 14.917 13.5 16.354Q12.062 17.792 10 17.792Z"/></svg>
